src/assets/icons/bubble/info.svg

<svg xmlns="http://www.w3.org/2000/svg" width="56" height="57"><g fill="#1E407B" fill-rule="evenodd"><circle cx="28" cy="28" r="28" opacity=".12" transform="translate(0 .667)"/><path fill-rule="nonzero" d="M28 12.5c-8.822 0-16 7.178-16 16s7.178 16 16 16 16-7.178 16-16-7.178-16-16-16zm2 7a2 2 0 11.001 3.999A2 2 0 0130 19.5zm1.763 17.046c-1.819.716-2.35.954-3.518.954-.954 0-1.696-.233-2.225-.698-1.045-.92-.869-2.248-.542-3.608l.984-3.483c.19-.717.575-2.182.036-2.696-.539-.514-1.794-.189-2.524.083l.263-1.073c1.054-.429 2.386-.954 3.523-.954 1.71 0 2.961.855 2.961 2.469 0 .151-.018.417-.053.799-.066.701-.086.655-1.178 4.521-.122.425-.311 1.328-.311 1.765 0 1.683 1.957 1.267 2.847.847l-.263 1.074z"/></g></svg>

<svg xmlns="http://www.w3.org/2000/svg" width="56" height="57" viewBox="0 0 56 57">
  <g fill="#1E407B" fill-rule="evenodd">
    <circle cx="28" cy="28" r="28" opacity=".12" transform="translate(0 .667)"/>
    <path fill-rule="nonzero" d="M28,12.5 C19.178,12.5 12,19.678 12,28.5 C12,37.322 19.178,44.5 28,44.5 C36.822,44.5 44,37.322 44,28.5 C44,19.678 36.822,12.5 28,12.5 Z M30,19.5 C31.105,19.5 32,20.395 32,21.5 C32,22.605 31.105,23.5 30,23.5 C28.895,23.5 28,22.605 28,21.5 C28,20.395 28.895,19.5 30,19.5 Z M31.763,36.546 C29.944,37.262 29.413,37.5 28.245,37.5 C27.291,37.5 26.549,37.267 26.02,36.802 C24.975,35.882 25.151,34.554 25.478,33.194 L26.462,29.711 C26.652,28.994 27.037,27.529 26.498,27.015 C25.959,26.501 24.704,26.826 23.974,27.098 L24.237,26.025 C25.291,25.596 26.623,25.071 27.76,25.071 C29.47,25.071 30.721,25.926 30.721,27.54 C30.721,27.691 30.703,27.957 30.668,28.339 C30.602,29.04 30.582,28.994 29.49,32.86 C29.368,33.285 29.179,34.188 29.179,34.625 C29.179,36.308 31.136,35.892 32.026,35.472 L31.763,36.546 Z"/>
  </g>
</svg>
